X:1
T:[ID 2-32]
T:[ID 2-32]
T:Bezeichnung standardisiert: Menuett Menuet 12
T:Urheber unbekannt Datum in der hier transkribierten schriftlichen Quelle: 1776 - 1791
C:Urheber unbekannt
C:Datum in der hier transkribierten schriftlichen Quelle: 1776 - 1791
%%score 1 2
L:1/8
M:3/4
K:Bb
V:1 treble nm="Viol Primo"
V:2 treble nm="Secondo"
V:1
 fd B2 B2 | gf f4 | edcgfe | (3dcB (3ABc B2 | cA F2 F2 | dc c4 | (3GAB A2 TG2 | F6 :: fdBFG_A | %9
 GFED E2 | g=ecGAB | AG{G} F4 | fd B2 B2 | Bfga b2 | Bc d2 Tc2 | B6 :| %16
V:2
 !fermata!dB G2 D2 | Ed d4 | cBAedc | (3Bcd(3cBA B2 | Ac A2 A2 | BA A4 | (3BAG F2 T=E2 | F6 :: %8
 dB FDEF | EDEF E2 | =ecG=EFG | F=E{E} F4 | dB F2 D2 | Ddec d2 | DE F2 TE2 | D6 :| %16

